X: 1
T: The Penicuik Hornpipe
C: R. Baillie
M: C|
L: 1/8
Q: =112
K: G
d2|g2 gf gdBg|ecAF GBDG|FGAB cedc|Bdag fadf|
gagf gdBg|ecAF GBDG|FGAB cFBA|G2 GF G2:|
d2|a2 ag fdfa|b2 ba gBef|gagf ed^ce|d2 d^c d4|
dcBd gBed|cBAc EAce|agfe dfaf|g2 b2 g2:|
